X: 243
T: 3. La Petite Paysanne
T: la Petite Paysanne
B: Robert Landrin "Potpourri fran\,cois des contre-danse ancienne tel quil se danse chez la Reine ..." 1760 p.24 #3 dance 8 #3
S: http://memory.loc.gov/cgi-bin/query/D?musdibib:2:./temp/~ammem_EbRS:
Z: 2014 John Chambers <jc:trillian.mit.edu>
M: 2/2
L: 1/8
K: G
% - - - - - - - - - - - - - - - - - - - - - - - - -
g2 |\
!+!f2e2 f2g2 | !+!f2e2 e2f2 | g4 !+!e4 | d^cde d2g2 |\
!+!f2e2 f2g2 | !+!f2e2 e2f2 | g4 !+!e4 | d6 :|
|: "4.F."d2 |\
{e}d2cB {d}c2BA | B2G2 G2d2 | c4 !+!B4 | AGAB A2d2 |\
{e}d2cB {d}c2BA | B2G2 G2d2 | B4 !+!A4 | G6 :|
% - - - - - - - - - - - - - - - - - - - - - - - - -

%%sep 1 1 500
%%sep 1 1 500
